img/tecnologias/css.svg

<svg width="81" height="81" viewBox="0 0 81 81" fill="none" xmlns="http://www.w3.org/2000/svg">
<path d="M18 15L22.0045 44.0521L39.9733 47.2898L57.9923 44.0403L62 15H18ZM53.6807 21.656L52.3477 31.3342L52.3517 31.3864L52.3461 31.5066V31.5056L51.3991 38.2727L51.2947 38.8739L40 40.8927L39.9912 40.8979L28.716 38.8678L27.9526 33.2729H33.4816L33.8739 36.1178L40.0016 37.191L40 37.1931L46.1504 36.1042L46.8003 31.4714H33.9432L33.8329 30.6882L33.5816 28.8534L33.4498 27.8682H47.289L47.7924 24.2651H26.714L26.6037 23.4825L26.3528 21.6472L26.2205 20.662H53.8125L53.6807 21.656Z" fill="#081546"/>
<path d="M31.4789 53.5263C32.2612 53.5263 32.9173 53.6122 33.4472 53.7838C33.9897 53.9555 34.5385 54.2344 35.0937 54.6206L34.1096 55.6022C33.3147 55.0551 32.4757 54.7815 31.5925 54.7815C30.5074 54.7815 29.6305 55.1356 28.9618 55.8436C28.3058 56.5517 27.9777 57.6888 27.9777 59.2551C27.9777 60.7785 28.3058 61.905 28.9618 62.6345C29.6179 63.3532 30.4885 63.7126 31.5735 63.7126C32.1287 63.7126 32.6144 63.6322 33.0308 63.4713C33.4472 63.3103 33.8888 63.085 34.3556 62.7954L35.2451 63.7609C34.8413 64.1149 34.324 64.41 33.6932 64.646C33.0623 64.882 32.3369 65 31.5168 65C30.4569 65 29.5107 64.7801 28.678 64.3402C27.8579 63.8896 27.2144 63.2352 26.7476 62.377C26.2934 61.508 26.0662 60.4674 26.0662 59.2551C26.0662 58.0429 26.306 57.0076 26.7854 56.1494C27.2649 55.2804 27.9146 54.626 28.7347 54.1861C29.5548 53.7463 30.4696 53.5263 31.4789 53.5263Z" fill="#404040"/>
<path d="M40.5405 53.5263C41.4111 53.5263 42.1555 53.6336 42.7737 53.8482C43.3919 54.052 43.9912 54.3739 44.5716 54.8137L43.5875 55.7471C43.0954 55.4145 42.6097 55.1731 42.1302 55.0229C41.6634 54.862 41.1587 54.7815 40.6162 54.7815C39.9349 54.7815 39.3734 54.9156 38.9318 55.1838C38.4902 55.452 38.2695 55.8436 38.2695 56.3585C38.2695 56.6804 38.3452 56.954 38.4966 57.1792C38.648 57.3938 38.9255 57.5923 39.3293 57.7747C39.7456 57.957 40.3449 58.1501 41.1272 58.354C41.9473 58.5685 42.6286 58.7992 43.1711 59.0459C43.7137 59.2927 44.149 59.636 44.477 60.0758C44.8177 60.5049 44.988 61.0521 44.988 61.7172C44.988 62.3609 44.7987 62.9295 44.4202 63.423C44.0543 63.9165 43.5181 64.3027 42.8116 64.5816C42.1176 64.8605 41.2912 65 40.3323 65C38.5281 65 37.0519 64.5226 35.9038 63.5678L36.8879 62.6345C37.4178 62.9992 37.954 63.2781 38.4966 63.4713C39.0391 63.6536 39.6447 63.7448 40.3134 63.7448C41.1209 63.7448 41.7896 63.5785 42.3195 63.246C42.8494 62.9027 43.1144 62.4092 43.1144 61.7655C43.1144 61.4007 43.0324 61.1004 42.8683 60.8643C42.7043 60.6176 42.4204 60.3977 42.0167 60.2046C41.6256 60.0115 41.0515 59.8184 40.2945 59.6252C38.9571 59.2819 37.9793 58.8689 37.361 58.3862C36.7428 57.9034 36.4337 57.249 36.4337 56.4229C36.4337 55.8651 36.604 55.3662 36.9447 54.9264C37.2979 54.4865 37.7837 54.1432 38.4019 53.8965C39.0328 53.6497 39.7456 53.5263 40.5405 53.5263Z" fill="#404040"/>
<path d="M50.6316 53.5263C51.5022 53.5263 52.2466 53.6336 52.8648 53.8482C53.483 54.052 54.0823 54.3739 54.6627 54.8137L53.6786 55.7471C53.1865 55.4145 52.7008 55.1731 52.2213 55.0229C51.7545 54.862 51.2498 54.7815 50.7073 54.7815C50.026 54.7815 49.4645 54.9156 49.0229 55.1838C48.5813 55.452 48.3606 55.8436 48.3606 56.3585C48.3606 56.6804 48.4363 56.954 48.5877 57.1792C48.7391 57.3938 49.0166 57.5923 49.4204 57.7747C49.8367 57.957 50.436 58.1501 51.2183 58.354C52.0384 58.5685 52.7197 58.7992 53.2622 59.0459C53.8048 59.2927 54.2401 59.636 54.5681 60.0758C54.9087 60.5049 55.0791 61.0521 55.0791 61.7172C55.0791 62.3609 54.8898 62.9295 54.5113 63.423C54.1454 63.9165 53.6092 64.3027 52.9027 64.5816C52.2087 64.8605 51.3823 65 50.4234 65C48.6192 65 47.143 64.5226 45.9949 63.5678L46.979 62.6345C47.5089 62.9992 48.0451 63.2781 48.5877 63.4713C49.1302 63.6536 49.7358 63.7448 50.4045 63.7448C51.212 63.7448 51.8807 63.5785 52.4106 63.246C52.9405 62.9027 53.2055 62.4092 53.2055 61.7655C53.2055 61.4007 53.1234 61.1004 52.9594 60.8643C52.7954 60.6176 52.5115 60.3977 52.1078 60.2046C51.7167 60.0115 51.1426 59.8184 50.3856 59.6252C49.0482 59.2819 48.0704 58.8689 47.4521 58.3862C46.8339 57.9034 46.5248 57.249 46.5248 56.4229C46.5248 55.8651 46.6951 55.3662 47.0358 54.9264C47.389 54.4865 47.8748 54.1432 48.493 53.8965C49.1239 53.6497 49.8367 53.5263 50.6316 53.5263Z" fill="#404040"/>
</svg>

<svg width="81" height="81" fill="none" xmlns="http://www.w3.org/2000/svg"><path d="m18 15 4.005 29.052 17.968 3.238 18.02-3.25L62 15H18Zm35.68 6.656-1.332 9.678.004.052-.006.12-.947 6.767-.104.6L40 40.894l-.009.005-11.275-2.03-.763-5.595h5.529l.392 2.845 6.128 1.073-.002.002 6.15-1.089.65-4.633H33.943l-.11-.783-.251-1.835-.132-.985h13.839l.503-3.603H26.714l-.11-.782-.251-1.836-.133-.985h27.593l-.132.994Z" fill="#081546"/><path d="M31.479 53.526c.782 0 1.438.086 1.968.258.543.172 1.091.45 1.647.837l-.984.981c-.795-.547-1.634-.82-2.517-.82-1.086 0-1.962.354-2.631 1.062-.656.708-.984 1.845-.984 3.411 0 1.523.328 2.65.984 3.38.656.718 1.526 1.078 2.611 1.078.556 0 1.041-.08 1.458-.242a8.04 8.04 0 0 0 1.325-.676l.89.966c-.405.354-.922.649-1.553.885-.63.236-1.356.354-2.176.354-1.06 0-2.006-.22-2.839-.66-.82-.45-1.464-1.105-1.93-1.963-.455-.869-.682-1.91-.682-3.122s.24-2.247.72-3.106c.479-.869 1.129-1.523 1.949-1.963.82-.44 1.735-.66 2.744-.66ZM40.54 53.526c.871 0 1.616.108 2.234.322a6.185 6.185 0 0 1 1.798.966l-.985.933a5.616 5.616 0 0 0-1.457-.724 4.616 4.616 0 0 0-1.514-.242c-.681 0-1.243.135-1.684.403-.442.268-.663.66-.663 1.175 0 .321.076.595.228.82.151.215.428.413.832.596.417.182 1.016.375 1.798.579.82.215 1.502.445 2.044.692.543.247.978.59 1.306 1.03.34.429.511.976.511 1.641 0 .644-.19 1.212-.568 1.706-.366.493-.902.88-1.608 1.159-.694.279-1.52.418-2.48.418-1.804 0-3.28-.477-4.428-1.432l.984-.933a6.96 6.96 0 0 0 1.609.836 5.681 5.681 0 0 0 1.816.274c.808 0 1.477-.166 2.006-.499.53-.343.795-.837.795-1.48 0-.365-.082-.666-.246-.902-.164-.246-.448-.466-.851-.66-.391-.193-.966-.386-1.723-.579-1.337-.343-2.315-.756-2.933-1.239-.618-.483-.927-1.137-.927-1.963 0-.558.17-1.057.51-1.497.354-.44.84-.783 1.458-1.03.63-.246 1.344-.37 2.139-.37ZM50.632 53.526c.87 0 1.615.108 2.233.322a6.185 6.185 0 0 1 1.798.966l-.984.933a5.616 5.616 0 0 0-1.458-.724 4.616 4.616 0 0 0-1.514-.242c-.681 0-1.242.135-1.684.403-.442.268-.662.66-.662 1.175 0 .321.075.595.227.82.151.215.429.413.832.596.417.182 1.016.375 1.798.579.82.215 1.502.445 2.044.692.543.247.978.59 1.306 1.03.34.429.511.976.511 1.641 0 .644-.19 1.212-.568 1.706-.366.493-.902.88-1.608 1.159-.694.279-1.52.418-2.48.418-1.804 0-3.28-.477-4.428-1.432l.984-.933a6.96 6.96 0 0 0 1.609.836 5.681 5.681 0 0 0 1.816.274c.808 0 1.477-.166 2.007-.499.53-.343.794-.837.794-1.48 0-.365-.082-.666-.246-.902-.164-.246-.448-.466-.851-.66-.391-.193-.965-.386-1.722-.579-1.338-.343-2.316-.756-2.934-1.239-.618-.483-.927-1.137-.927-1.963 0-.558.17-1.057.51-1.497.354-.44.84-.783 1.458-1.03.63-.246 1.344-.37 2.139-.37Z" fill="#404040"/></svg>
